**harm	**harte	**silbe	**silbe	**rhyme	**timestamp	**phrase	**leadinstrument	**kern
*M4/4	*M4/4	*	*	*	*	*	*	*
*	*	*	*	*	*	*	*	*
*	*	*	*	*	*	*	*	*
*G:	*G:	*	*	*	*	*	*	*G:
*	*	*	*	*	*	*	*	*
*	*	*	*	*	*	*	*	*
1r;	N	.	.	.	0	.	r	1r;
=1	=1	=1	=1	=1	=1	=1	=1	=1
*>Letter>A	*>Letter>A	*>Letter>A	*>Letter>A	*>Letter>A	*>Letter>A	*>Letter>A	*>Letter>A	*>Letter>A
*>Label>Intro	*>Label>Intro	*>Label>Intro	*>Label>Intro	*>Label>Intro	*>Label>Intro	*>Label>Intro	*>Label>Intro	*>Label>Intro
1I	G:maj	.	.	.	0.418	newline	harmonica	1G 1b 1dd
=2	=2	=2	=2	=2	=2	=2	=2	=2
1IV	C:maj	.	.	.	2.066	.	harmonica	1C 1e 1g
=3	=3	=3	=3	=3	=3	=3	=3	=3
1I	G:maj	.	.	.	3.714	.	harmonica	1G 1b 1dd
=4	=4	=4	=4	=4	=4	=4	=4	=4
1IV	C:maj	.	.	.	5.363	.	harmonica	1C 1e 1g
=5	=5	=5	=5	=5	=5	=5	=5	=5
1I	G:maj	.	.	.	7.011	newline	harmonica	1G 1b 1dd
=6	=6	=6	=6	=6	=6	=6	=6	=6
1IV	C:maj	.	.	.	8.629	.	harmonica	1C 1e 1g
=7	=7	=7	=7	=7	=7	=7	=7	=7
1I	G:maj	.	.	.	10.248	.	harmonica	1G 1b 1dd
=8	=8	=8	=8	=8	=8	=8	=8	=8
1I	G:maj	.	.	.	11.866	.	harmonica	1G 1b 1dd
=9	=9	=9	=9	=9	=9	=9	=9	=9
*>Letter>B	*>Letter>B	*>Letter>B	*>Letter>B	*>Letter>B	*>Letter>B	*>Letter>B	*>Letter>B	*>Letter>B
*>Label>Verse	*>Label>Verse	*>Label>Verse	*>Label>Verse	*>Label>Verse	*>Label>Verse	*>Label>Verse	*>Label>Verse	*>Label>Verse
1I	G:maj	Love	Love	.	13.485	newline	voice	1G 1b 1dd
.	.	love	love	.	.	.	.	.
.	.	me	me	.	.	.	.	.
.	.	do	do	A	.	.	.	.
=10	=10	=10	=10	=10	=10	=10	=10	=10
1IV	C:maj	_	_	.	15.11	.	voice	1C 1e 1g
.	.	.	.	.	.	.	.	.
.	.	.	.	.	.	.	.	.
.	.	.	.	.	.	.	.	.
.	.	You	You	.	.	.	.	.
=11	=11	=11	=11	=11	=11	=11	=11	=11
1I	G:maj	know	know	.	16.735	.	voice	1G 1b 1dd
.	.	I	I	.	.	.	.	.
.	.	love	love	.	.	.	.	.
.	.	you	you	A	.	.	.	.
=12	=12	=12	=12	=12	=12	=12	=12	=12
1IV	C:maj	_	_	.	18.36	.	voice	1C 1e 1g
.	.	.	.	.	.	.	.	.
.	.	.	.	.	.	.	.	.
.	.	.	.	.	.	.	.	.
.	.	I'll	I'll	.	.	.	.	.
=13	=13	=13	=13	=13	=13	=13	=13	=13
1I	G:maj	al-	al-	.	19.985	newline	voice	1G 1b 1dd
.	.	-ways	-ways	.	.	.	.	.
.	.	be	be	.	.	.	.	.
.	.	true	true	A	.	.	.	.
=14	=14	=14	=14	=14	=14	=14	=14	=14
1IV	C:maj	_	_	.	21.636	.	voice	1C 1e 1g
.	.	.	.	.	.	.	.	.
.	.	.	.	.	.	.	.	.
.	.	.	.	.	.	.	.	.
.	.	so	so	.	.	.	.	.
=15	=15	=15	=15	=15	=15	=15	=15	=15
1IV	C:maj	please	please	.	23.286	.	voice	1C 1e 1g
.	.	_	_	.	.	.	.	.
.	.	_	_	.	.	.	.	.
=16	=16	=16	=16	=16	=16	=16	=16	=16
1IV	C:maj	_	_	.	24.937	.	voice	1C 1e 1g
=17	=17	=17	=17	=17	=17	=17	=17	=17
1IV	C:maj	_	_	.	26.588	.	voice	1C 1e 1g
.	.	.	.	.	.	.	.	.
.	.	Love	.	.	.	.	.	.
.	.	me	.	.	.	.	.	.
=18	=18	=18	=18	=18	=18	=18	=18	=18
*>Letter>A	*>Letter>A	*>Letter>A	*>Letter>A	*>Letter>A	*>Letter>A	*>Letter>A	*>Letter>A	*>Letter>A
*>Label>Interlude	*>Label>Interlude	*>Label>Interlude	*>Label>Interlude	*>Label>Interlude	*>Label>Interlude	*>Label>Interlude	*>Label>Interlude	*>Label>Interlude
1I	G:maj	do	.	A	28.238	newline	harmonica	1G 1b 1dd
.	.	_	.	.	.	.	.	.
=19	=19	=19	=19	=19	=19	=19	=19	=19
1IV	C:maj	.	.	.	29.872	.	harmonica	1C 1e 1g
.	.	Woh	.	.	.	.	.	.
.	.	_	.	.	.	.	.	.
.	.	.	.	.	.	.	.	.
.	.	Love	.	.	.	.	.	.
=20	=20	=20	=20	=20	=20	=20	=20	=20
1I	G:maj	_	.	.	31.507	.	harmonica	1G 1b 1dd
.	.	me	.	.	.	.	.	.
.	.	do	.	A	.	.	.	.
.	.	_	.	.	.	.	.	.
=21	=21	=21	=21	=21	=21	=21	=21	=21
1IV	C:maj	.	.	.	33.141	.	harmonica	1C 1e 1g
=22	=22	=22	=22	=22	=22	=22	=22	=22
*>Letter>B	*>Letter>B	*>Letter>B	*>Letter>B	*>Letter>B	*>Letter>B	*>Letter>B	*>Letter>B	*>Letter>B
*>Label>Verse	*>Label>Verse	*>Label>Verse	*>Label>Verse	*>Label>Verse	*>Label>Verse	*>Label>Verse	*>Label>Verse	*>Label>Verse
1I	G:maj	Love	Love	.	34.775	newline	voice	1G 1b 1dd
.	.	love	love	.	.	.	.	.
.	.	me	me	.	.	.	.	.
.	.	do	do	A	.	.	.	.
=23	=23	=23	=23	=23	=23	=23	=23	=23
1IV	C:maj	_	_	.	36.422	.	voice	1C 1e 1g
.	.	.	.	.	.	.	.	.
.	.	.	.	.	.	.	.	.
.	.	.	.	.	.	.	.	.
.	.	You	You	.	.	.	.	.
=24	=24	=24	=24	=24	=24	=24	=24	=24
1I	G:maj	know	know	.	38.069	.	voice	1G 1b 1dd
.	.	I	I	.	.	.	.	.
.	.	love	love	.	.	.	.	.
.	.	you	you	A	.	.	.	.
=25	=25	=25	=25	=25	=25	=25	=25	=25
1IV	C:maj	_	_	.	39.716	.	voice	1C 1e 1g
.	.	.	.	.	.	.	.	.
.	.	.	.	.	.	.	.	.
.	.	.	.	.	.	.	.	.
.	.	I'll	I'll	.	.	.	.	.
=26	=26	=26	=26	=26	=26	=26	=26	=26
1I	G:maj	al-	al-	.	41.363	newline	voice	1G 1b 1dd
.	.	-ways	-ways	.	.	.	.	.
.	.	be	be	.	.	.	.	.
.	.	true	true	A	.	.	.	.
=27	=27	=27	=27	=27	=27	=27	=27	=27
1IV	C:maj	_	_	.	43.012	.	voice	1C 1e 1g
.	.	.	.	.	.	.	.	.
.	.	.	.	.	.	.	.	.
.	.	.	.	.	.	.	.	.
.	.	So	So	.	.	.	.	.
=28	=28	=28	=28	=28	=28	=28	=28	=28
1IV	C:maj	please	please	.	44.661	.	voice	1C 1e 1g
.	.	_	_	.	.	.	.	.
.	.	_	_	.	.	.	.	.
=29	=29	=29	=29	=29	=29	=29	=29	=29
1IV	C:maj	_	_	.	46.31	.	voice	1C 1e 1g
=30	=30	=30	=30	=30	=30	=30	=30	=30
1IV	C:maj	_	_	.	47.958	.	voice	1C 1e 1g
.	.	.	.	.	.	.	.	.
.	.	Love	.	.	.	.	.	.
.	.	me	.	.	.	.	.	.
=31	=31	=31	=31	=31	=31	=31	=31	=31
*>Letter>A2	*>Letter>A2	*>Letter>A2	*>Letter>A2	*>Letter>A2	*>Letter>A2	*>Letter>A2	*>Letter>A2	*>Letter>A2
*>Label>Interlude	*>Label>Interlude	*>Label>Interlude	*>Label>Interlude	*>Label>Interlude	*>Label>Interlude	*>Label>Interlude	*>Label>Interlude	*>Label>Interlude
1I	G:maj	do	.	A	49.607	newline	harmonica	1G 1b 1dd
.	.	_	.	.	.	.	.	.
=32	=32	=32	=32	=32	=32	=32	=32	=32
1IV	C:maj	.	.	.	51.224	.	harmonica	1C 1e 1g
.	.	Woh	.	.	.	.	.	.
.	.	_	.	.	.	.	.	.
.	.	.	.	.	.	.	.	.
.	.	love	.	.	.	.	.	.
=33	=33	=33	=33	=33	=33	=33	=33	=33
1I	G:maj	_	.	.	52.841	.	harmonica	1G 1b 1dd
.	.	me	.	.	.	.	.	.
.	.	do	.	A	.	.	.	.
.	.	_	.	.	.	.	.	.
=34	=34	=34	=34	=34	=34	=34	=34	=34
1I	G:maj	.	.	.	54.458	.	harmonica	1G 1b 1dd
=35	=35	=35	=35	=35	=35	=35	=35	=35
*>Letter>C	*>Letter>C	*>Letter>C	*>Letter>C	*>Letter>C	*>Letter>C	*>Letter>C	*>Letter>C	*>Letter>C
*>Label>Bridge	*>Label>Bridge	*>Label>Bridge	*>Label>Bridge	*>Label>Bridge	*>Label>Bridge	*>Label>Bridge	*>Label>Bridge	*>Label>Bridge
1V	D:maj	Some-	.	.	56.076	newline	voice	1D 1f# 1a
.	.	-one	.	.	.	.	.	.
.	.	to	.	.	.	.	.	.
=36	=36	=36	=36	=36	=36	=36	=36	=36
1V	D:maj	love	.	.	57.708	.	voice	1D 1f# 1a
.	.	.	.	.	.	.	.	.
=37	=37	=37	=37	=37	=37	=37	=37	=37
1IV	C:maj	Some-	Some-	.	59.34	.	voice	1C 1e 1g
.	.	-bo-	-bo-	.	.	.	.	.
.	.	-dy	-dy	.	.	.	.	.
=38	=38	=38	=38	=38	=38	=38	=38	=38
1I	G:maj	new	new	A	60.973	.	voice	1G 1b 1dd
.	.	_	.	.	.	.	.	.
.	.	.	.	.	.	.	.	.
=39	=39	=39	=39	=39	=39	=39	=39	=39
1V	D:maj	Some-	.	.	62.605	newline	voice	1D 1f# 1a
.	.	-one	.	.	.	.	.	.
.	.	to	.	.	.	.	.	.
=40	=40	=40	=40	=40	=40	=40	=40	=40
1V	D:maj	love	.	.	64.248	.	voice	1D 1f# 1a
.	.	.	.	.	.	.	.	.
=41	=41	=41	=41	=41	=41	=41	=41	=41
1IV	C:maj	Some-	Some-	.	65.89	.	voice	1C 1e 1g
.	.	-one	-one	.	.	.	.	.
.	.	like	like	.	.	.	.	.
=42	=42	=42	=42	=42	=42	=42	=42	=42
1I	G:maj	you	you	A	67.532	.	voice	1G 1b 1dd
.	.	.	.	.	.	.	.	.
.	.	.	.	.	.	.	.	.
=43	=43	=43	=43	=43	=43	=43	=43	=43
*>Letter>B	*>Letter>B	*>Letter>B	*>Letter>B	*>Letter>B	*>Letter>B	*>Letter>B	*>Letter>B	*>Letter>B
*>Label>Verse	*>Label>Verse	*>Label>Verse	*>Label>Verse	*>Label>Verse	*>Label>Verse	*>Label>Verse	*>Label>Verse	*>Label>Verse
1I	G:maj	Love	Love	.	69.174	newline	voice	1G 1b 1dd
.	.	love	love	.	.	.	.	.
.	.	me	me	.	.	.	.	.
.	.	do	do	A	.	.	.	.
=44	=44	=44	=44	=44	=44	=44	=44	=44
1IV	C:maj	_	_	.	70.808	.	voice	1C 1e 1g
.	.	.	.	.	.	.	.	.
.	.	.	.	.	.	.	.	.
.	.	.	.	.	.	.	.	.
.	.	You	You	A	.	.	.	.
=45	=45	=45	=45	=45	=45	=45	=45	=45
1I	G:maj	know	know	.	72.441	.	voice	1G 1b 1dd
.	.	I	I	.	.	.	.	.
.	.	love	love	.	.	.	.	.
.	.	you	you	A	.	.	.	.
=46	=46	=46	=46	=46	=46	=46	=46	=46
1IV	C:maj	_	_	.	74.075	.	voice	1C 1e 1g
.	.	.	.	.	.	.	.	.
.	.	.	.	.	.	.	.	.
.	.	.	.	.	.	.	.	.
.	.	I'll	I'll	.	.	.	.	.
=47	=47	=47	=47	=47	=47	=47	=47	=47
1I	G:maj	al-	al-	.	75.708	newline	voice	1G 1b 1dd
.	.	-ways	-ways	.	.	.	.	.
.	.	be	be	.	.	.	.	.
.	.	true	true	A	.	.	.	.
=48	=48	=48	=48	=48	=48	=48	=48	=48
1IV	C:maj	_	_	.	77.354	.	voice	1C 1e 1g
.	.	.	.	.	.	.	.	.
.	.	.	.	.	.	.	.	.
.	.	.	.	.	.	.	.	.
.	.	So	So	.	.	.	.	.
=49	=49	=49	=49	=49	=49	=49	=49	=49
1IV	C:maj	please	please	.	79.001	.	voice	1C 1e 1g
.	.	_	_	.	.	.	.	.
.	.	_	_	.	.	.	.	.
=50	=50	=50	=50	=50	=50	=50	=50	=50
1IV	C:maj	_	_	.	80.647	.	voice	1C 1e 1g
=51	=51	=51	=51	=51	=51	=51	=51	=51
1IV	C:maj	_	_	.	82.293	.	voice	1C 1e 1g
.	.	.	.	.	.	.	.	.
.	.	Love	.	.	.	.	.	.
.	.	me	.	.	.	.	.	.
=52	=52	=52	=52	=52	=52	=52	=52	=52
*>Letter>A2	*>Letter>A2	*>Letter>A2	*>Letter>A2	*>Letter>A2	*>Letter>A2	*>Letter>A2	*>Letter>A2	*>Letter>A2
*>Label>Interlude	*>Label>Interlude	*>Label>Interlude	*>Label>Interlude	*>Label>Interlude	*>Label>Interlude	*>Label>Interlude	*>Label>Interlude	*>Label>Interlude
1I	G:maj	do	.	A	83.94	newline	harmonica	1G 1b 1dd
.	.	_	.	.	.	.	.	.
=53	=53	=53	=53	=53	=53	=53	=53	=53
1IV	C:maj	.	.	.	85.569	.	harmonica	1C 1e 1g
.	.	Woh	.	.	.	.	.	.
.	.	_	.	.	.	.	.	.
.	.	.	.	.	.	.	.	.
=54	=54	=54	=54	=54	=54	=54	=54	=54
1I	G:maj	love	.	.	87.198	.	harmonica	1G 1b 1dd
.	.	me	.	.	.	.	.	.
.	.	do	.	A	.	.	.	.
.	.	_	.	.	.	.	.	.
=55	=55	=55	=55	=55	=55	=55	=55	=55
1I	G:maj	_	.	.	88.827	.	harmonica	1G 1b 1dd
.	.	.	.	.	.	.	.	.
.	.	.	.	.	.	.	.	.
=56	=56	=56	=56	=56	=56	=56	=56	=56
*>Letter>C	*>Letter>C	*>Letter>C	*>Letter>C	*>Letter>C	*>Letter>C	*>Letter>C	*>Letter>C	*>Letter>C
*>Label>Solo	*>Label>Solo	*>Label>Solo	*>Label>Solo	*>Label>Solo	*>Label>Solo	*>Label>Solo	*>Label>Solo	*>Label>Solo
1V	D:maj	.	.	.	90.456	newline	harmonica	1D 1f# 1a
=57	=57	=57	=57	=57	=57	=57	=57	=57
1V	D:maj	.	.	.	92.056	.	harmonica	1D 1f# 1a
=58	=58	=58	=58	=58	=58	=58	=58	=58
1IV	C:maj	.	.	.	93.655	.	harmonica	1C 1e 1g
=59	=59	=59	=59	=59	=59	=59	=59	=59
1I	G:maj	.	.	.	95.254	.	harmonica	1G 1b 1dd
=60	=60	=60	=60	=60	=60	=60	=60	=60
1V	D:maj	.	.	.	96.854	newline	harmonica	1D 1f# 1a
=61	=61	=61	=61	=61	=61	=61	=61	=61
1V	D:maj	.	.	.	98.467	.	harmonica	1D 1f# 1a
=62	=62	=62	=62	=62	=62	=62	=62	=62
1IV	C:maj	.	.	.	100.081	.	harmonica	1C 1e 1g
=63	=63	=63	=63	=63	=63	=63	=63	=63
1I	G:maj	.	.	.	101.694	.	harmonica	1G 1b 1dd
=64	=64	=64	=64	=64	=64	=64	=64	=64
*>Letter>A3	*>Letter>A3	*>Letter>A3	*>Letter>A3	*>Letter>A3	*>Letter>A3	*>Letter>A3	*>Letter>A3	*>Letter>A3
*>Label>Trans	*>Label>Trans	*>Label>Trans	*>Label>Trans	*>Label>Trans	*>Label>Trans	*>Label>Trans	*>Label>Trans	*>Label>Trans
1I	G:maj	.	.	.	103.308	newline	harmonica	1G 1b 1dd
=65	=65	=65	=65	=65	=65	=65	=65	=65
1I	G:maj	.	.	.	104.932	.	harmonica	1G 1b 1dd
=66	=66	=66	=66	=66	=66	=66	=66	=66
1I	G:maj	.	.	.	106.556	.	harmonica	1G 1b 1dd
=67	=67	=67	=67	=67	=67	=67	=67	=67
2I	G:maj	.	.	.	108.18	.	harmonica	1G 1b 1dd
2V	D:maj	.	.	.	108.992	.	harmonica	2D 2f# 2a
=68	=68	=68	=68	=68	=68	=68	=68	=68
*>Letter>B	*>Letter>B	*>Letter>B	*>Letter>B	*>Letter>B	*>Letter>B	*>Letter>B	*>Letter>B	*>Letter>B
*>Label>Verse	*>Label>Verse	*>Label>Verse	*>Label>Verse	*>Label>Verse	*>Label>Verse	*>Label>Verse	*>Label>Verse	*>Label>Verse
1I	G:maj	Love	Love	.	109.804	newline	voice	1G 1b 1dd
.	.	love	love	.	.	.	.	.
.	.	me	me	.	.	.	.	.
.	.	do	do	A	.	.	.	.
=69	=69	=69	=69	=69	=69	=69	=69	=69
1IV	C:maj	_	_	.	111.402	.	voice	1C 1e 1g
.	.	.	.	.	.	.	.	.
.	.	.	.	.	.	.	.	.
.	.	.	.	.	.	.	.	.
.	.	You	You	A	.	.	.	.
=70	=70	=70	=70	=70	=70	=70	=70	=70
1I	G:maj	know	know	.	113	.	voice	1G 1b 1dd
.	.	I	I	.	.	.	.	.
.	.	love	love	.	.	.	.	.
.	.	you	you	A	.	.	.	.
=71	=71	=71	=71	=71	=71	=71	=71	=71
1IV	C:maj	_	_	.	114.598	.	voice	1C 1e 1g
.	.	.	.	.	.	.	.	.
.	.	.	.	.	.	.	.	.
.	.	.	.	.	.	.	.	.
.	.	I'll	I'll	.	.	.	.	.
=72	=72	=72	=72	=72	=72	=72	=72	=72
1I	G:maj	al-	al-	.	116.197	newline	voice	1G 1b 1dd
.	.	-ways	-ways	.	.	.	.	.
.	.	be	be	.	.	.	.	.
.	.	true	true	A	.	.	.	.
=73	=73	=73	=73	=73	=73	=73	=73	=73
1IV	C:maj	_	_	.	117.829	.	voice	1C 1e 1g
.	.	.	.	.	.	.	.	.
.	.	.	.	.	.	.	.	.
.	.	.	.	.	.	.	.	.
.	.	So	So	.	.	.	.	.
=74	=74	=74	=74	=74	=74	=74	=74	=74
1IV	C:maj	please	please	.	119.462	.	voice	1C 1e 1g
.	.	_	_	.	.	.	.	.
.	.	_	_	.	.	.	.	.
=75	=75	=75	=75	=75	=75	=75	=75	=75
1IV	C:maj	_	_	.	121.095	.	voice	1C 1e 1g
=76	=76	=76	=76	=76	=76	=76	=76	=76
1IV	C:maj	_	_	.	122.728	.	voice	1C 1e 1g
.	.	.	.	.	.	.	.	.
.	.	Love	.	.	.	.	.	.
.	.	me	.	.	.	.	.	.
=77	=77	=77	=77	=77	=77	=77	=77	=77
*>Letter>A	*>Letter>A	*>Letter>A	*>Letter>A	*>Letter>A	*>Letter>A	*>Letter>A	*>Letter>A	*>Letter>A
*>Label>Outro	*>Label>Outro	*>Label>Outro	*>Label>Outro	*>Label>Outro	*>Label>Outro	*>Label>Outro	*>Label>Outro	*>Label>Outro
1I	G:maj	do	.	A	124.36	newline	harmonica	1G 1b 1dd
.	.	_	.	.	.	.	.	.
=78	=78	=78	=78	=78	=78	=78	=78	=78
1IV	C:maj	.	.	.	125.971	.	harmonica	1C 1e 1g
.	.	Woh	.	.	.	.	.	.
.	.	_	.	.	.	.	.	.
.	.	.	.	.	.	.	.	.
.	.	love	.	.	.	.	.	.
=79	=79	=79	=79	=79	=79	=79	=79	=79
1I	G:maj	_	.	.	127.581	.	harmonica	1G 1b 1dd
.	.	me	.	.	.	.	.	.
.	.	do	.	A	.	.	.	.
.	.	_	.	.	.	.	.	.
=80	=80	=80	=80	=80	=80	=80	=80	=80
1IV	C:maj	.	.	.	129.191	.	harmonica	1C 1e 1g
.	.	Yeah	.	.	.	.	.	.
.	.	love	.	.	.	.	.	.
=81	=81	=81	=81	=81	=81	=81	=81	=81
*>Label>>Fadeout	*>Label>>Fadeout	*>Label>>Fadeout	*>Label>>Fadeout	*>Label>>Fadeout	*>Label>>Fadeout	*>Label>>Fadeout	*>Label>>Fadeout	*>Label>>Fadeout
1I	G:maj	_	.	.	130.802	newline	harmonica voice	1G 1b 1dd
.	.	me	.	.	.	.	.	.
.	.	do	.	A	.	.	.	.
.	.	_	.	.	.	.	.	.
.	.	.	.	.	.	.	.	.
=82	=82	=82	=82	=82	=82	=82	=82	=82
1IV	C:maj	.	.	.	132.25	.	harmonica voice	1C 1e 1g
.	.	Woh	.	.	.	.	.	.
.	.	_	.	.	.	.	.	.
.	.	.	.	.	.	.	.	.
=83	=83	=83	=83	=83	=83	=83	=83	=83
1I	G:maj	love	.	.	133.698	.	harmonica voice	1G 1b 1dd
.	.	me	.	.	.	.	.	.
.	.	do	.	A	.	.	.	.
.	.	_	.	.	.	.	.	.
=84	=84	=84	=84	=84	=84	=84	=84	=84
1IV	C:maj	.	.	.	135.146	.	harmonica voice	1C 1e 1g
.	.	Yeah	.	.	.	.	.	.
.	.	.	.	.	.	.	.	.
=85	=85	=85	=85	=85	=85	=85	=85	=85
1I	G:maj	.	.	.	136.594	.	harmonica voice	1G 1b 1dd
1r;	N	.	.	.	138.043	.	r	1r;
1r;	N	.	.	.	142.811	.	r	1r;
*-	*-	*-	*-	*-	*-	*-	*-	*-
!!!BillboardChartDate: 1964/07/11
!!!BillboardPeak: 1
!!!BillboardWeeksOnChart: 14
!!!COC: The Beatles
!!!ENC: Nathaniel Condit-Schultz
!!!EST: Awating manual error checking and editing.
!!!OTL: Love Me Do
!!!RDF**harte: Chris Harte's syntax, used by MIREX
!!!RDF**harmony: **recip + pitch class of root + harmonic quality
!!!RDF**leadinstrument: original McGill primary instrumentation annotation
!!!RDF**phrase: newline = linebreak in original McGill transcription
!!!RDF**timestamp: McGill audio timestamp in seconds
!!!RDT: 2017/01/12/
!!!SampleActualRank: 24
!!!SampleID#: 0050
!!!SampleTargetRank: 23
!!!MBID: 1f518811-7cf9-4bdc-a656-0958e130f312
